packages/match-logos/mono/svg/morgan-stanley.svg

<svg fill="none" height="30" viewBox="0 0 152 30" width="152" xmlns="http://www.w3.org/2000/svg"><path clip-rule="evenodd" d="m142.02 12.0407s.82 2.3258 1.668 4.7326l.213.6021c.812 2.3045 1.591 4.5116 1.639 4.6456l3.212-9.9803h1.869l-4.364 13.5073c-.597 1.8616-1.651 3.9969-4.538 3.9969-.543 0-.953-.1011-1.441-.2617l-.042-.0119.301-1.6475.055.0178c.349.0952.687.1844 1.054.1844 1.821 0 2.435-1.4988 2.911-3.0393-.011-.0344-4.215-11.8697-4.51-12.7002l-.016-.0458zm-92.9002-1.0579.2356.0166v1.6271h-.6825c-.5148 0-.844.0237-1.3109.2722.5148.71.7961 1.6093.8081 2.6625v.071c0 1.2011-.449 2.3135-1.2631 3.13-.8201.8225-1.9514 1.278-3.1726 1.278-.7123 0-1.3768-.1242-2.0891-.3905l-.1856.142c-.3891.2959-.88.6686-.88 1.1716 0 .5502 1.1434.6508 2.592.781 2.5621.2248 6.0759.5384 6.0759 3.6684 0 2.2306-1.9275 3.408-5.5671 3.408-5.0702 0-5.6149-2.2838-5.6149-3.266 0-1.3668 1.2152-2.0827 2.1849-2.5146-.7303-.3018-1.5504-.8521-1.5504-1.7928 0-.8284.4549-1.2485.9877-1.7337.2095-.1893.419-.3905.6226-.6212-.9758-1.142-1.4187-1.9111-1.4187-3.3726 0-2.5974 1.9514-4.479 4.6452-4.479 1.0415 0 1.9993.3077 2.8553.9171l.012.0118c.85-.6271 1.8437-1.0886 2.9512-.9703zm-6.7802 12.6016c-1.1074.2071-2.4064.8283-2.4064 1.8874 0 1.6938 2.5251 1.803 3.6301 1.8101l.207.0005c1.3409 0 3.5977-.2544 3.5977-1.9762 0-.929-.9877-1.4496-3.023-1.5916-.006 0-2.0054-.1302-2.0054-.1302zm60.7274-11.9184c1.766 0 4.394 1.0884 4.394 4.0801v6.4176l.006.4164c.012.8089.024 1.6475.343 2.4207l.024.0714h-2.139s-.157-1.3977-.181-1.5821c-1.001.9635-2.194 1.9568-3.755 1.9568-2.0311 0-3.6825-1.6832-3.6825-3.753 0-3.5211 3.5195-4.443 6.3465-5.1805l.53-.1368.555-.1547v-.684c0-1.3917-.916-2.2185-2.441-2.2185-1.206 0-2.212.6424-3.1583 2.0163l-.0301.0417-1.3923-1.0231.0301-.0416c1.2597-1.7843 2.7426-2.6467 4.5506-2.6467zm30.937.0059c1.248 0 2.284.4342 3.074 1.2788 1.036 1.1063 1.621 2.9322 1.621 4.9901 0 .3034-.012.6127-.036.9279l-.006.0476h-7.896c.018 3.1463 1.236 4.8831 3.436 4.8831 1.724 0 2.851-1.6832 3.158-2.2007l.03-.0476 1.404.9219-.018.0417c-.759 1.7783-2.633 2.9322-4.767 2.9322-3.369 0-5.298-2.51-5.298-6.8875s1.929-6.8875 5.298-6.8875zm-51.0134-5.29943c2.6761 0 4.7434 1.79027 5.5329 4.79393l.0121.0475-1.8564.571-.012-.0535c-.6751-2.21257-1.5731-3.68761-3.7971-3.68761-1.6755 0-2.9894 1.34419-2.9894 3.06311 0 2.046 1.8021 2.8014 3.7126 3.6043l.382.1612c2.175.9247 4.4762 2.0781 4.4819 5.3643 0 3.1106-2.1517 5.2042-5.346 5.2042-3.2607 0-5.6896-1.9924-6.3405-5.1923l-.0121-.0476 1.9769-.4699.0121.0535c.3977 1.9212 1.9407 3.985 4.3817 3.985 1.8684 0 3.2727-1.4274 3.2727-3.3188 0-2.3791-1.9166-3.1464-3.9478-3.9672-2.2722-.9159-4.6228-1.8616-4.6228-5.0972 0-2.95006 2.1216-5.01393 5.1592-5.01393zm10.4992 1.47504v4.19319h2.9654v1.6534l-1.2459-.0005c-.0654-.0001-.1315-.0001-.1976-.0002l-.5839-.0008c-.496-.0009-.8969-.0022-.9319-.0044l.0003 8.3809c.0034.6236.0353 1.1171.3312 1.4091.2169.2141.5725.3152 1.1089.3152.5606 0 1.0367-.0535 1.4586-.1606l.0663-.0178v1.4393l-.0362.0119c-.7353.2558-1.3139.3747-1.8684.3747-1.0427 0-1.784-.226-2.2601-.7018-.7052-.7018-.7594-1.8676-.7594-3.1345v-7.9164h-1.995v-1.6475h1.995v-4.19319zm23.1082 3.81849c2.254 0 3.399 1.4928 3.399 4.431v8.9811h-1.953v-8.5052l.006-.4045c.012-.91.03-1.939-.524-2.4921-.277-.2736-.651-.4044-1.163-.4044-1.145 0-2.622 1.1241-3.315 1.933v9.8613h-1.959v-13.0255h1.959v1.2787c1.067-.8505 2.073-1.6534 3.55-1.6534zm9.034-4.91287v18.31907h-1.952v-18.31907zm-69.9613 4.51257c1.7539 0 4.3638 1.0827 4.3638 4.0589v6.3842l.006.4142c.012.8046.024 1.6389.3412 2.4081l.03.071h-2.1251s-.1616-1.3905-.1796-1.5739c-.9937.9585-2.1849 1.9466-3.7293 1.9466-2.0173 0-3.6575-1.6744-3.6575-3.7334 0-3.5028 3.4899-4.4199 6.2974-5.1536l.5267-.1361.5508-.1538v-.6804c0-1.3845-.9099-2.207-2.4244-2.207-1.1972 0-2.1969.639-3.1367 2.0058l-.03.0414-1.3827-1.0177.0299-.0414c1.2451-1.775 2.7237-2.6329 4.5195-2.6329zm-32.9295 0c3.3402 0 5.2618 2.4968 5.2618 6.8516 0 4.3547-1.9216 6.8516-5.2618 6.8516-3.3463 0-5.2618-2.4969-5.2618-6.8516 0-4.3548 1.9155-6.8516 5.2618-6.8516zm46.2964 0c2.2448 0 3.3762 1.4851 3.3762 4.408v8.9343h-1.9455v-8.461l.006-.4023c.012-.9053.0299-1.9289-.5208-2.4792-.2634-.2721-.6405-.4023-1.1493-.4023-1.1374 0-2.604 1.1183-3.2924 1.9229v9.8101h-1.9455v-12.9578h1.9455v1.2721c1.0596-.8461 2.0592-1.6448 3.5258-1.6448zm-54.4495-4.89323v18.22373h-2.0353v-16.25344l-4.42967 16.25344h-1.65815l-4.42971-16.25344v16.25934h-2.03527v-18.22371h3.29834s3.96878 14.79791 3.99871 14.91031c.02993-.1124 3.93285-14.91031 3.93285-14.91031h3.3163v-.00592zm22.7771 5.08253v1.7691l-.0599-.0118c-2.3525-.3195-3.5796 2.1655-4.298 4.0471v7.3368h-1.9455v-12.9578h1.9455v2.6981c.7303-1.5088 1.6821-2.8815 3.5977-2.8815zm68.1368 6.3788-1.121.3212c-1.778.4996-4.4663 1.2609-4.4663 3.3545 0 .9933.7833 2.0995 1.9163 2.0995 1.766 0 3.146-1.4393 3.671-2.0698zm-82.7608-4.9292c-2.8853 0-3.3163 3.2661-3.3163 5.2127s.431 5.2127 3.3163 5.2127 3.3163-3.2661 3.3163-5.2127l-.0009-.1523c-.0228-1.9597-.5041-5.0604-3.3154-5.0604zm35.3419 4.4968-1.1134.3195c-1.7659.497-4.4357 1.2543-4.4357 3.337 0 .9881.7841 2.0887 1.9035 2.0887 1.76 0 3.1308-1.4319 3.6456-2.0591zm-14.4983-4.8814c-1.8378 0-2.8255 1.5798-2.8255 3.0708 0 1.4792.9099 2.9762 2.6578 2.9762 1.7719 0 2.8674-1.1479 2.8734-2.9998 0-1.4082-.7124-3.0472-2.7057-3.0472zm90.2802.7994c-1.934 0-3.007 2.0223-3.055 3.9434h5.804v-.0714c0-1.017-.35-2.3612-1.157-3.182-.453-.458-.989-.69-1.592-.69zm-61.4512-12.74003v9.41379l-9.4138-9.41379zm-1.4029 1.40293h-4.4034l4.4034 4.40332z" fill="#1f304c" fill-rule="evenodd"/></svg>

<svg width="152" height="30" viewBox="0 0 152 30" fill="none" xmlns="http://www.w3.org/2000/svg">
<path fill-rule="evenodd" clip-rule="evenodd" d="M142.02 12.0407C142.02 12.0407 142.84 14.3665 143.688 16.7733L143.901 17.3754C144.713 19.6799 145.492 21.887 145.54 22.021L148.752 12.0407H150.621L146.257 25.548C145.66 27.4096 144.606 29.5449 141.719 29.5449C141.176 29.5449 140.766 29.4438 140.278 29.2832L140.236 29.2713L140.537 27.6238L140.592 27.6416C140.941 27.7368 141.279 27.826 141.646 27.826C143.467 27.826 144.081 26.3272 144.557 24.7867C144.546 24.7523 140.342 12.917 140.047 12.0865L140.031 12.0407H142.02ZM49.1198 10.9828L49.3554 10.9994V12.6265H48.6729C48.1581 12.6265 47.8289 12.6502 47.362 12.8987C47.8768 13.6087 48.1581 14.508 48.1701 15.5612V15.6322C48.1701 16.8333 47.7211 17.9457 46.907 18.7622C46.0869 19.5847 44.9556 20.0402 43.7344 20.0402C43.0221 20.0402 42.3576 19.916 41.6453 19.6497L41.4597 19.7917C41.0706 20.0876 40.5797 20.4603 40.5797 20.9633C40.5797 21.5135 41.7231 21.6141 43.1717 21.7443C45.7338 21.9691 49.2476 22.2827 49.2476 25.4127C49.2476 27.6433 47.3201 28.8207 43.6805 28.8207C38.6103 28.8207 38.0656 26.5369 38.0656 25.5547C38.0656 24.1879 39.2808 23.472 40.2505 23.0401C39.5202 22.7383 38.7001 22.188 38.7001 21.2473C38.7001 20.4189 39.155 19.9988 39.6878 19.5136C39.8973 19.3243 40.1068 19.1231 40.3104 18.8924C39.3346 17.7504 38.8917 16.9813 38.8917 15.5198C38.8917 12.9224 40.8431 11.0408 43.5369 11.0408C44.5784 11.0408 45.5362 11.3485 46.3922 11.9579L46.4042 11.9697C47.2542 11.3426 48.2479 10.8811 49.3554 10.9994L49.1198 10.9828ZM42.3396 23.5844C41.2322 23.7915 39.9332 24.4127 39.9332 25.4718C39.9332 27.1656 42.4583 27.2748 43.5633 27.2819L43.7703 27.2824C45.1112 27.2824 47.368 27.028 47.368 25.3062C47.368 24.3772 46.3803 23.8566 44.345 23.7146C44.339 23.7146 42.3396 23.5844 42.3396 23.5844ZM103.067 11.666C104.833 11.666 107.461 12.7544 107.461 15.7461V22.1637L107.467 22.5801C107.479 23.389 107.491 24.2276 107.81 25.0008L107.834 25.0722H105.695C105.695 25.0722 105.538 23.6745 105.514 23.4901C104.513 24.4536 103.32 25.4469 101.759 25.4469C99.7279 25.4469 98.0765 23.7637 98.0765 21.6939C98.0765 18.1728 101.596 17.2509 104.423 16.5134L104.953 16.3766L105.508 16.2219V15.5379C105.508 14.1462 104.592 13.3194 103.067 13.3194C101.861 13.3194 100.855 13.9618 99.9087 15.3357L99.8786 15.3774L98.4863 14.3543L98.5164 14.3127C99.7761 12.5284 101.259 11.666 103.067 11.666ZM134.004 11.6719C135.252 11.6719 136.288 12.1061 137.078 12.9507C138.114 14.057 138.699 15.8829 138.699 17.9408C138.699 18.2442 138.687 18.5535 138.663 18.8687L138.657 18.9163H130.761C130.779 22.0626 131.997 23.7994 134.197 23.7994C135.921 23.7994 137.048 22.1162 137.355 21.5987L137.385 21.5511L138.789 22.473L138.771 22.5147C138.012 24.293 136.138 25.4469 134.004 25.4469C130.635 25.4469 128.706 22.9369 128.706 18.5594C128.706 14.1819 130.635 11.6719 134.004 11.6719ZM82.9906 6.37247C85.6667 6.37247 87.734 8.16274 88.5235 11.1664L88.5356 11.2139L86.6792 11.7849L86.6672 11.7314C85.9921 9.51883 85.0941 8.04379 82.8701 8.04379C81.1946 8.04379 79.8807 9.38798 79.8807 11.1069C79.8807 13.1529 81.6828 13.9083 83.5933 14.7112L83.9753 14.8724C86.1503 15.7971 88.4515 16.9505 88.4572 20.2367C88.4572 23.3473 86.3055 25.4409 83.1112 25.4409C79.8505 25.4409 77.4216 23.4485 76.7707 20.2486L76.7586 20.201L78.7355 19.7311L78.7476 19.7846C79.1453 21.7058 80.6883 23.7696 83.1293 23.7696C84.9977 23.7696 86.402 22.3422 86.402 20.4508C86.402 18.0717 84.4854 17.3044 82.4542 16.4836C80.182 15.5677 77.8314 14.622 77.8314 11.3864C77.8314 8.43634 79.953 6.37247 82.9906 6.37247ZM93.4898 7.84751V12.0407H96.4552V13.6941L95.2093 13.6936C95.1439 13.6935 95.0778 13.6935 95.0117 13.6934L94.4278 13.6926C93.9318 13.6917 93.5309 13.6904 93.4959 13.6882L93.4962 22.0691C93.4996 22.6927 93.5315 23.1862 93.8274 23.4782C94.0443 23.6923 94.3999 23.7934 94.9363 23.7934C95.4969 23.7934 95.973 23.7399 96.3949 23.6328L96.4612 23.615V25.0543L96.425 25.0662C95.6897 25.322 95.1111 25.4409 94.5566 25.4409C93.5139 25.4409 92.7726 25.2149 92.2965 24.7391C91.5913 24.0373 91.5371 22.8715 91.5371 21.6046V13.6882H89.5421V12.0407H91.5371V7.84751H93.4898ZM116.598 11.666C118.852 11.666 119.997 13.1588 119.997 16.097V25.0781H118.044V16.5729L118.05 16.1684C118.062 15.2584 118.08 14.2294 117.526 13.6763C117.249 13.4027 116.875 13.2719 116.363 13.2719C115.218 13.2719 113.741 14.396 113.048 15.2049V25.0662H111.089V12.0407H113.048V13.3194C114.115 12.4689 115.121 11.666 116.598 11.666ZM125.632 6.75313V25.0722H123.68V6.75313H125.632ZM55.6707 11.2657C57.4246 11.2657 60.0345 12.3484 60.0345 15.3246V21.7088L60.0405 22.123C60.0525 22.9276 60.0645 23.7619 60.3817 24.5311L60.4117 24.6021H58.2866C58.2866 24.6021 58.125 23.2116 58.107 23.0282C57.1133 23.9867 55.9221 24.9748 54.3777 24.9748C52.3604 24.9748 50.7202 23.3004 50.7202 21.2414C50.7202 17.7386 54.2101 16.8215 57.0176 16.0878L57.5443 15.9517L58.0951 15.7979V15.1175C58.0951 13.733 57.1852 12.9105 55.6707 12.9105C54.4735 12.9105 53.4738 13.5495 52.534 14.9163L52.504 14.9577L51.1213 13.94L51.1512 13.8986C52.3963 12.1236 53.8749 11.2657 55.6707 11.2657ZM22.7412 11.2657C26.0814 11.2657 28.003 13.7625 28.003 18.1173C28.003 22.472 26.0814 24.9689 22.7412 24.9689C19.3949 24.9689 17.4794 22.472 17.4794 18.1173C17.4794 13.7625 19.3949 11.2657 22.7412 11.2657ZM69.0376 11.2657C71.2824 11.2657 72.4138 12.7508 72.4138 15.6737V24.608H70.4683V16.147L70.4743 15.7447C70.4863 14.8394 70.5042 13.8158 69.9535 13.2655C69.6901 12.9934 69.313 12.8632 68.8042 12.8632C67.6668 12.8632 66.2002 13.9815 65.5118 14.7861V24.5962H63.5663V11.6384H65.5118V12.9105C66.5714 12.0644 67.571 11.2657 69.0376 11.2657ZM14.5881 6.37247V24.5962H12.5528V8.34276L8.12313 24.5962H6.46498L2.03527 8.34276V24.6021H0V6.37839H3.29834C3.29834 6.37839 7.26712 21.1763 7.29705 21.2887C7.32698 21.1763 11.2299 6.37839 11.2299 6.37839H14.5462V6.37247H14.5881ZM37.3652 11.455V13.2241L37.3053 13.2123C34.9528 12.8928 33.7257 15.3778 33.0073 17.2594V24.5962H31.0618V11.6384H33.0073V14.3365C33.7376 12.8277 34.6894 11.455 36.605 11.455H37.3652ZM105.502 17.8338L104.381 18.155C102.603 18.6546 99.9147 19.4159 99.9147 21.5095C99.9147 22.5028 100.698 23.609 101.831 23.609C103.597 23.609 104.977 22.1697 105.502 21.5392V17.8338ZM22.7412 12.9046C19.8559 12.9046 19.4249 16.1707 19.4249 18.1173C19.4249 20.0639 19.8559 23.33 22.7412 23.33C25.6265 23.33 26.0575 20.0639 26.0575 18.1173L26.0566 17.965C26.0338 16.0053 25.5525 12.9046 22.7412 12.9046ZM58.0831 17.4014L56.9697 17.7209C55.2038 18.2179 52.534 18.9752 52.534 21.0579C52.534 22.046 53.3181 23.1466 54.4375 23.1466C56.1975 23.1466 57.5683 21.7147 58.0831 21.0875V17.4014ZM43.5848 12.52C41.747 12.52 40.7593 14.0998 40.7593 15.5908C40.7593 17.07 41.6692 18.567 43.4171 18.567C45.189 18.567 46.2845 17.4191 46.2905 15.5672C46.2905 14.159 45.5781 12.52 43.5848 12.52ZM133.865 13.3194C131.931 13.3194 130.858 15.3417 130.81 17.2628H136.614V17.1914C136.614 16.1744 136.264 14.8302 135.457 14.0094C135.004 13.5514 134.468 13.3194 133.865 13.3194ZM72.4138 0.57937V9.99316L63 0.57937H72.4138ZM71.0109 1.9823H66.6075L71.0109 6.38562V1.9823Z" fill="#1F304C"/>
</svg>
